X:496
T:Ton-y-Botel
C:Thomas John Williams, 1890
L:1/8
M:4/4
Q:1/4=105
K:Emin
E2 (3EFG F2 E2 | F2 (3FGA G>F E2 |
B2 (3ABc B>A G2 | A>G F2 E4 |
E2 (3EFG F2 E2 | F2 (3FGA G>F E2 |
B2 (3ABc B>A G2 | A>G F2 E4 |
B2 (3GAB A2 A2 | G2 (3EFG F2 F2 |
E2 (3EFG A2 A2 | G2 (3AGA B4 |
E2 (3EFG F2 E2 | F2 (3FGA G>F E2 |
B2 (3ABc B>A G2 | A>G F2 E4 |
